icons/icn_map.svg

<svg width="24" xmlns="http://www.w3.org/2000/svg" height="24" id="screenshot-db98763a-3795-80f3-8006-36c3d5c196f5" viewBox="0 0 24 24" xmlns:xlink="http://www.w3.org/1999/xlink" fill="none" version="1.1"><g id="shape-db98763a-3795-80f3-8006-36c3d5c196f5"><g class="frame-container-wrapper"><g class="frame-container-blur"><g class="frame-container-shadows"><g fill="none"><g class="fills" id="fills-db98763a-3795-80f3-8006-36c3d5c196f5"><rect rx="0" ry="0" x="0" y="0" width="24" height="24.000000000000455" transform="matrix(1, 0, 0, 1, 0, 0)" class="frame-background"/></g><g class="frame-children"><g id="shape-db98763a-3795-80f3-8006-36c3b166deab" rx="0" ry="0" style="fill: rgb(0, 0, 0);"><g id="shape-db98763a-3795-80f3-8006-36c3b167457e" style="opacity: 1;"><g class="fills" id="fills-db98763a-3795-80f3-8006-36c3b167457e"><path d="M8.896819114685059,2.3261420726776123C8.890715599060059,2.3273627758026123,8.885100364685059,2.3287055492401123,8.878996849060059,2.3299262523651123C8.822112083435059,2.3340766429901123,8.765715599060059,2.3443305492401123,8.711028099060059,2.3612983226776123L2.5977468490600586,4.347626209259033C2.2884206771850586,4.445770740509033,2.0769948959350586,4.731903553009033,2.0743093490600586,5.056610584259033L2.0743093490600586,20.927703857421875C2.0772390365600586,21.435760498046875,2.5738210678100586,21.794036865234375,3.0567312240600586,21.636688232421875L8.943449974060059,19.732391357421875L14.830168724060059,21.636688232421875C14.847746849060059,21.638641357421875,14.865324974060059,21.639984130859375,14.882903099060059,21.640472412109375C14.940764427185059,21.651824951171875,14.999846458435059,21.656341552734375,15.058684349060059,21.654144287109375C15.117766380310059,21.656463623046875,15.176604270935059,21.651824951171875,15.234465599060059,21.640472412109375C15.252287864685059,21.639862060546875,15.269621849060059,21.638519287109375,15.287199974060059,21.636688232421875L21.408292770385742,19.658172607421875C21.717618942260742,19.556488037109375,21.925870895385742,19.266937255859375,21.923917770385742,18.941375732421875L21.923917770385742,3.0780951976776123C21.926115036010742,2.5678412914276123,21.429044723510742,2.2045600414276123,20.943449020385742,2.3612983226776123L15.058684349060059,4.273407459259033L9.175871849060059,2.3612983226776123C9.168791770935059,2.3605659008026123,9.161711692810059,2.3599555492401123,9.154387474060059,2.3593451976776123C9.078459739685059,2.3374946117401123,8.999358177185059,2.3272407054901123,8.920012474060059,2.3299262523651123C8.912199974060059,2.3284614086151123,8.904631614685059,2.3271186351776123,8.896574974060059,2.3261420726776123ZM8.193694114685059,4.103485584259033L8.193694114685059,18.396453857421875L3.5804128646850586,19.894500732421875L3.5804128646850586,5.603485584259033ZM9.693694114685059,4.103485584259033L14.306975364685059,5.603485584259033L14.306975364685059,19.894500732421875L9.693694114685059,18.396453857421875ZM20.426115036010742,4.103485584259033L20.426115036010742,18.396453857421875L15.812834739685059,19.894500732421875L15.812834739685059,5.603485584259033Z" style="display: inline; stroke-linecap: round; stroke-linejoin: round; fill: rgb(0, 0, 0); fill-opacity: 1;"/></g></g></g></g></g></g></g></g></g></svg>

<svg fill="none" viewBox="0 0 24 24"><g class="frame-container-wrapper"><g class="frame-container-blur"><g class="frame-container-shadows"><g class="fills"><rect width="24" height="24" class="frame-background" rx="0" ry="0"/></g><g class="frame-children"><path fill="#000" d="M8.8968 2.3261 8.879 2.33a.751.751 0 0 0-.168.0314L2.5977 4.3476a.7505.7505 0 0 0-.5234.709v15.8711c.003.508.4995.8663.9824.709l5.8867-1.9043 5.8868 1.9043a.638.638 0 0 0 .0527.0038.7653.7653 0 0 0 .1758.0136.7575.7575 0 0 0 .1758-.0136.7546.7546 0 0 0 .0527-.0038l6.121-1.9785a.7497.7497 0 0 0 .5157-.7168V3.078c.0022-.5103-.4949-.8735-.9805-.7168l-5.8847 1.9121-5.8828-1.9121a1.0797 1.0797 0 0 0-.0215-.002A.7555.7555 0 0 0 8.92 2.33a.3607.3607 0 0 0-.0234-.0038Zm-.7031 1.7774v14.293l-4.6133 1.498V5.6035Zm1.5 0 4.6133 1.5v14.291l-4.6133-1.498Zm10.7324 0v14.293l-4.6133 1.498V5.6035Z" class="fills"/></g></g></g></g></svg>
